X: 134001
T: The STRAWBERRY BEDS
Q: "Irish Reel."
R: Reel.
%R: reel
B: James Kerr "Merry Melodies" v.1 p.34 s.0 #1
Z: 2016 John Chambers <jc:trillian.mit.edu>
M: C
L: 1/8
K: Ador
(uge) |\
dBAc BGGA | BcBA B2(ge) |\
dBAc BGGB | Aaag a2 :|\
(uef) |\
gage abaf | gfga bgef |
gfga bagf | eaag a2(ef) |\
gage abaf | gfga bgeg |\
bagf gfed | eaag a2 |]

%%sep 1 1 500
%%sep 1 1 500

